X:1
T:Vespere autem Sabbati - Handl
T:#
%%score [ 1 2 3 4 ]
L:1/8
Q:1/4=200
M:none
K:C
V:1 treble nm="Soprano" snm="S"
V:2 treble nm="Alto" snm="A"
V:3 treble-8 nm="Tenor" snm="T"
V:4 bass nm="Bass" snm="B"
V:1
"^Matthew 28: 1" z8"^Vespere autem Sabbati""^Jacob Handl\n (1550-91)" (G8 | c12) A4 | A12 d4- | %3
w: Ves\-|* spe-|re au\-|
 d4 d4 B8- | B4 G4 G8 |[M:4/2] z4 c4 G4 A4 | E4 (A6 G2 F2 E2 | D4) A4 F4 F4- | F4 D4 D8 | %9
w: * tem Sab\-|* ba- ti,|quae lu- ce-|scit in * * *|* pri- ma Sab\-|* ba- ti,|
 z4 G4 c4 B4 | e4 d4 G8 | G8 (G6 F2 | E2 C2) c8 B4 | c4 c4 c4 G4 | A4 B4 c4 B4 | %15
w: quae lu- ce-|scit in pri-|ma Sab\- *|* * * ba-|ti, ve- nit Ma-|ri- a Mag- da-|
 (A2 G2 G6 ^F2 F4) | (G4 F2 E2 D4) F4 | G4 (G8 ^F4) | G8 z8 | z8 G8 | B4 G4 A4 B4 | %21
w: le\- * * * *|ne, * * * Mag-|da- le\- *|ne,|et|al- te- ra Ma-|
 (c6 B2 c2 A2 B4- | B2 A2 A8 ^G4) | A4 A4 c8 | (A8 c6 B2 | A4) F4 G8 | A8 z4 A4 | c8 (A8 | %28
w: ri\- * * * *||a vi- de-|re * *|* se- pul-|chrum, vi-|de- re|
 c6 B2 A4) G4- | G4 (F8 E4) | F8 z4 G4 | (A2 B2 c2 A2 B4) (A4- | A2 G2 G8 ^F4) | (G8 E8) | %34
w: * * * se\-|* pul\- *|chrum, Al-|le\- * * * * lu\-||ia, *|
 z4 A4 (B2 c2 d2 B2 | c4) B4 A8 | z4 D4 (E2 F2 G2 E2) | F4 A4 G8 | z4 G8 ^F4 | %39
w: Al- le\- * * *|* lu- ia,|Al- le\- * * *|* lu- ia,|Al- le-|
 G16[Q:1/4=197][Q:1/4=194][Q:1/4=192][Q:1/4=189][Q:1/4=187] |[Q:1/4=182] G16-[Q:1/4=173] | %41
w: lu-|ia.|
[Q:1/4=170] G16 |] %42
w: |
V:2
 z16 | z8 (C8 | F12) D4 | D12 G4- | G4 G4 E8- |[M:4/2] E4 C4 C8 | z4 F4 C4 D4 | A,8 z4 C4 | %8
w: |Ves\-|* spe-|re au\-|* tem Sab\-|* ba- ti,|quae lu- ce-|scit in|
 C4 B,4 A,6 A,2 | B,8 z4 G,4 | C4 B,4 E4 D4 | C4 D4 E4 D4 | E8 z4 G4 | G4 C4 E8- | E4 D4 C4 D4 | %15
w: pri- ma Sab- ba-|ti, quae|lu- ce- scit in|pri- ma Sab- ba-|ti, ve-|nit Ma- ri\-|* a Mag- da-|
 (C2 E2 D4) D8 | z8 D8 | E4 C4 (D6 C2 | B,4) E4 D8 | C4 D4 E4 C4 | D4 E4 F8 | E4 E4 E4 G4 | %22
w: le\- * * ne,|et|al- te- ra *|* Ma- ri-|a, et al- te-|ra Ma- ri-|a, et al- te-|
 F4 E4 E8 | E8 z4 E4 | F8 (E6 D2 | E4) F8 E4 | F16 | E8 F8 | C4 (F8 E2 D2) | C8 (C6 B,2) | %30
w: ra Ma- ri-|a vi-|de- re *|* se- pul-|chrum,|vi- de-|re se\- * *|* pul\- *|
 A,8 G,8 | z4 C4 (D2 E2 F2 D2 | E4) D4 E4 z2 A,2 | (B,2 C2 D2 B,2 C2 B,2 A,4) | G,4 C4 z4 D4 | %35
w: * chrum,|Al- le\- * * *|* lu- ia, Al-|le\- * * * * * *|lu- ia, Al-|
 (E2 F2 G2 E2 C6) F2 | D8 z4 C4 | (D2 E2 F2 D2 E4 D2 G2 | F2 D2) E4 D8- | D8 z4 E4 | %40
w: le\- * * * * lu-|ia, Al-|le\- * * * * * *|* * lu- ia,|* Al-|
 (D4 E4) (E2 D2 E2 C2) | D16 |] %42
w: le\- * lu\- * * *|ia.|
V:3
 (G8 c8- | c4) A4 A8- | A4 d8 d4 | B12 G4 | G8 z4 c4 |[M:4/2][K:treble-8] G4 A4 E4 c4- | %6
w: Ves\- *|* spe- re|* au- tem|Sab- ba-|ti, quae|lu- ce- scit in|
 c4 A4 c4 (A4- | A2 G2 F2 E2 D2 E2 F2 G2 | A2 G2 G8) ^F4 | (G2 =F2 E2 D2 C2 D2 E2 D2 | %10
w: * pri- ma Sab\-||* * * ba-|ti, * * * * * * *|
 C4) G4 c4 B4 | e4 d4 B8 | c8 d6 d2 | c8 c8 | c4 G4 A4 B4 | c4 B8 A4 | G4 A4 B4 A4 | B4 G4 A8 | %18
w: * quae lu- ce-|scit in pri-|ma Sab- ba-|ti, ve-|nit Ma- ri- a|Mag- da- le-|ne, Ma- ri- a|Mag- da- le-|
 G4 G4 B4 G4 | A4 B4 c8 | G8 z8 | z4 A4 e6 e2 | c4 c4 B8 | A8 z4 A4 | d8 (A6 B2 | c4) d4 c8 | %26
w: ne, et al- te-|ra Ma- ri-|a,|et al- te-|ra Ma- ri-|a vi-|de- re *|* se- pul-|
 (F6 G2 A8) | z4 A4 c8 | A8 (c6 B2) | (A8 G8 | F8) E8 | z8 z4 A4 | (B2 c2 d2 B2 c4) A4 | G8 z4 c4 | %34
w: chrum, * *|vi- de-|re se\- *|pul\- *|* chrum,|Al-|le\- * * * * lu-|ia, Al-|
 (d2 e2 f2 c2 e4) d4 | c4 G4 (A2 B2 c2 A2 | B4) B4 c8 | z4 A4 B6 (c2 | d2 B2 c4) A8 | %39
w: le\- * * * * lu-|ia, Al- le\- * * *|* lu- ia,|Al- le- lu\-|* * * lu-|
 G4 D4 (E2 F2 G3 A | B8) c8 | B16 |] %42
w: ia, Al- le\- * * *|* lu-|ia.|
V:4
 z16 | (C,8 F,8- | F,4) D,4 D,8 | G,8 G,8 | E,12 C,4 |[M:4/2] C,8 z4 F,4 | C,4 D,4 A,,4 (D,4- | %7
w: |Ves\- *|* pe- re|au- tem|Sab- ba-|ti, quae|lu- ce- scit in|
 D,2 E,2 F,2 G,2 A,4) F,4- | F,4 G,4 D,6 D,2 | G,,8 z8 | z8 z4 G,,4 | C,4 B,,4 E,4 G,4 | %12
w: * * * * * pri\-|* ma Sab- ba-|ti,|quae|lu- ce- scit in|
 C,4 C,4 G,6 G,2 | C,16 | z16 | z4 G,4 G,4 D,4 | E,4 F,4 G,4 F,4 | E,8 D,4 D,4 | E,4 C,4 D,4 E,4 | %19
w: pri- ma Sab- ba-|ti,||ve- nit Ma-|ri- a Mag- da-|le- ne, et|al- te- ra Ma-|
 F,8 C,8 | z8 D,8 | A,12 E,4 | F,4 A,4 E,8 | A,,8 z8 | z16 | z16 | D,8 F,4 D,4 | A,8 F,8 | %28
w: ri- a,|et|al- te-|ra Ma- ri-|a|||vi- de- re|se- pul-|
 F,8 z4 C,4 | F,8 C,8 | z4 D,4 (E,2 F,2 G,2 E,2 | F,2 G,2 A,4) G,4 F,4 | G,8 C,4 D,4 | %33
w: chrum, se-|pul- chrum,|Al- le\- * * *|* * * lu- ia,|Al- le- lu-|
 G,,4 G,4 (A,2 B,2 C2 A,2 | B,4) A,4 G,8 | z4 E,4 (F,2 G,2 A,2 F,2 | G,4) G,4 C,8 | %37
w: ia, Al- le\- * * *|* lu- ia,|Al- le\- * * *|* lu- ia,|
 z4 F,4 (E,2 F,2 G,2 E,2 | F,2 G,2 C,4) D,8 | G,,4 B,,4 (C,2 D,2 E,2 C,2 | %40
w: Al- le\- * * *|* * * lu-|ia, Al- le\- * * *|
 G,2 F,2 E,2 D,2 C,4) C,4 | G,16 |] %42
w: * * * * * lu-|ia.|

